X:75
T:Captain Dunne's March
R:March
S:Roche III #208 p80
M:C|
L:1/8
K:D
AF|D2D>D DFAD|G2E>E E3G|FABc dAFD|A2AB AGFE|
D2D>D DFAF|G2E>E E3G|F/G/A F>D E/F/G E>C|D2D>D D2:|
A2|d2d>d dAFD|G2 E>E E2 cd|e2ef edcB|ABcB AGFE|
D2D>D DFAF|G2 E>E E2G2|F/G/A F>D E/F/G E>C|D2D>D D2:|
